apps/ui-icons/svgs/double_arrow_right.svg

<svg viewBox="0 0 24 24" width="24" height="24"  fill="none" xmlns="http://www.w3.org/2000/svg">
<path d="M11.8352 11.4498C12.0915 11.8379 12.0488 12.3654 11.7071 12.7071L6.70711 17.7071C6.31658 18.0976 5.68342 18.0976 5.29289 17.7071C4.90237 17.3166 4.90237 16.6834 5.29289 16.2929L9.58579 12L5.29289 7.70711C4.90237 7.31658 4.90237 6.68342 5.29289 6.29289C5.68342 5.90237 6.31658 5.90237 6.70711 6.29289L11.7068 11.2926C11.7556 11.3414 11.7986 11.3943 11.8352 11.4498Z" fill="#171D26"/>
<path d="M17.8352 11.4498C18.0915 11.8379 18.0488 12.3654 17.7071 12.7071L12.7071 17.7071C12.3166 18.0976 11.6834 18.0976 11.2929 17.7071C10.9024 17.3166 10.9024 16.6834 11.2929 16.2929L15.5858 12L11.2929 7.70711C10.9024 7.31658 10.9024 6.68342 11.2929 6.29289C11.6834 5.90237 12.3166 5.90237 12.7071 6.29289L17.7068 11.2926C17.7556 11.3414 17.7986 11.3943 17.8352 11.4498Z" fill="#171D26"/>
</svg>

<svg xmlns="http://www.w3.org/2000/svg" width="24" height="24" fill="none" viewBox="0 0 24 24">
  <path fill="#171D26" d="M11.835 11.45a1 1 0 0 1-.128 1.257l-5 5a1 1 0 0 1-1.414-1.414L9.586 12 5.293 7.707a1 1 0 0 1 1.414-1.414l5 5a.907.907 0 0 1 .128.157Z"/>
  <path fill="#171D26" d="M17.835 11.45a1 1 0 0 1-.128 1.257l-5 5a1 1 0 0 1-1.414-1.414L15.586 12l-4.293-4.293a1 1 0 0 1 1.414-1.414l5 5a.907.907 0 0 1 .128.157Z"/>
</svg>
